svgs/thin/piano.svg

<svg xmlns="http://www.w3.org/2000/svg" viewBox="0 0 512 512"><!-- Font Awesome Pro 6.0.0-alpha2 by @fontawesome - https://fontawesome.com License - https://fontawesome.com/license (Commercial License) --><path d="M476.516 270.195L417.844 240.986C396.174 230.199 384.129 207.672 383.996 183.465C383.441 82.066 301.154 0 199.5 0H184.5C82.604 0 0 82.604 0 184.5V448C0 483.199 28.801 512 64 512H448C483.201 512 512 483.199 512 448V327.5C512 303.213 498.256 281.018 476.516 270.195ZM496 448C496 474.467 474.467 496 448 496H64C37.533 496 16 474.467 16 448V352H48V408C48 421.234 58.768 432 72 432H88C101.234 432 112 421.234 112 408V352H128V408C128 421.234 138.768 432 152 432H168C181.234 432 192 421.234 192 408V352H208V408C208 421.234 218.768 432 232 432H248C261.234 432 272 421.234 272 408V352H320V408C320 421.234 330.768 432 344 432H360C373.234 432 384 421.234 384 408V352H400V408C400 421.234 410.768 432 424 432H440C453.234 432 464 421.234 464 408V352H496V448ZM64 408V352H96V408C96 412.418 92.418 416 88 416H72C67.582 416 64 412.418 64 408ZM144 408V352H176V408C176 412.418 172.418 416 168 416H152C147.582 416 144 412.418 144 408ZM224 408V352H256V408C256 412.418 252.418 416 248 416H232C227.582 416 224 412.418 224 408ZM336 408V352H368V408C368 412.418 364.418 416 360 416H344C339.582 416 336 412.418 336 408ZM416 408V352H448V408C448 412.418 444.418 416 440 416H424C419.582 416 416 412.418 416 408ZM496 336H16V184.5C16 91.588 91.59 16 184.5 16H199.5C291.902 16 367.49 91.164 367.996 183.553C368.168 214.783 384.537 242.279 410.713 255.309L469.385 284.52C485.803 292.691 496 309.16 496 327.5V336Z"/></svg>

<svg xmlns="http://www.w3.org/2000/svg" viewBox="0 0 512 512"><!--! Font Awesome Pro 6.3.0 by @fontawesome - https://fontawesome.com License - https://fontawesome.com/license (Commercial License) Copyright 2023 Fonticons, Inc. --><path d="M476.6 270.2l-58.72-29.23c-21.67-10.79-33.71-33.32-33.85-57.52C383.4 82.06 301.2 0 199.5 0h-15C82.6 0 0 82.6 0 184.5V448c0 35.2 28.8 64 64 64h384c35.2 0 64-28.8 64-64v-120.5C512 303.2 498.3 281 476.6 270.2zM496 448c0 26.47-21.53 48-48 48H64c-26.47 0-48-21.53-48-48v-96h32v56c0 13.23 10.77 24 24 24h16c13.23 0 24-10.77 24-24V352H128v56c0 13.23 10.77 24 24 24h16C181.2 432 192 421.2 192 408V352h16v56c0 13.23 10.77 24 24 24h16c13.23 0 24-10.77 24-24V352H320v56c0 13.23 10.77 24 24 24h16c13.23 0 24-10.77 24-24V352h16v56c0 13.23 10.77 24 24 24h16c13.23 0 24-10.77 24-24V352h32V448zM64 408V352h32v56C96 412.4 92.42 416 88 416h-16C67.58 416 64 412.4 64 408zM144 408V352h32v56C176 412.4 172.4 416 168 416h-16C147.6 416 144 412.4 144 408zM224 408V352h32v56C256 412.4 252.4 416 248 416h-16C227.6 416 224 412.4 224 408zM336 408V352h32v56c0 4.418-3.582 8-8 8h-16C339.6 416 336 412.4 336 408zM416 408V352h32v56c0 4.418-3.582 8-8 8h-16C419.6 416 416 412.4 416 408zM496 336h-480V184.5C16 91.59 91.59 16 184.5 16h15c92.4 0 167.1 75.16 168.5 167.6c.1719 31.23 16.54 58.73 42.72 71.76l58.67 29.21C485.8 292.7 496 309.2 496 327.5V336z"/></svg>
